X:1
T:The Blessed Virgin's Expostulation
T:Henry Purcell
T:Nahum Tate
T:The Blessed Virgin's Expostulation
C:Henry Purcell
%%score 1 { ( 2 4 ) | 3 }
L:1/8
Q:1/4=80
M:4/4
K:D
V:1 treble nm="Soprano" snm="S"
V:2 treble nm="Harpsichord" snm="Hpschd."
V:4 treble 
V:3 bass 
V:1
 FF z2 BB z2 | c2 z2 d2 d<F | G3 G/G/ G3 F | F2 f<c c/d/e d>c | d4 ^d2 z2 | ee/e/ e2 ^e2 f<^A | %6
w: Tell me, tell me,|some,- some pi- *|* ty- ing an- gel|tell, quick- ly, quick- * ly, quick- ly|say, Where,|where does my soul's sweet _ _|
 B3 c c3 B | !fermata!^A2 z F =A3 A | z A c2 c<F f2 | f/c/d/c/ d/B/c/^G/ A/G/A/F/ G/A/B- | %10
w: _ _ dar- ling|stay? In ti- ger's,|or more cru- el, more|cru- * * * * * * * * * * * * * *|
 B/^E/E d<c A3 ^G/F/ | F4 z2 d2 | z d c>d A>B F>G | F/G/A =c<B A<F G<E | F<D d<A G3 F | %15
w: * * el, cru- el He- rod's _|way? O!|O! _ _ _ _ _ _|_ _ _ ra- ther, ra- ther let his|lit- tle, lit- tle foot- steps|
 F2 F^G/A/ GB/G/ A/G/ F/E/ | A/B/A/B/ c/B/A/B/ c/d/c/d/ e/d/c/d/ | e2 fB B3 A | A2 z B B =c2 c | %19
w: press Un- * * re- * * gar- * ded _|through _ _ _ _ _ _ _ _ _ _ _ _ _ _ _|_ _ the wil- der-|ness, Where mild- * er,|
 =cB B>c c d2 d | dddc ^A4 | z ^A c<F ^D3 D | z ^d f<B ^G<G c>=d | %23
w: mild- * er, where mild- * er|sa- va- ges re- sort:|The de- sert's sa- fer,|the de- sert's sa- fer than a|
 c/d/e- e/f/e/f/ g/f/e/d/ e/c/f- | f/g/f/e/ d/e/d/c/ B/^A/B/F/ B2- | B/c/B/c/ d c/B/ !fermata!B4 | %26
w: ty- * * * * * * * * * * * * *||* * * * * rant's _ court.|
 z2 ^A2 z2 cA | ^AA A/A/A/A/ A2 dA | z2 e^A AA z A/A/ | BB B>c ^A>^G A/G/!fermata!F | %30
w: Why, why, _|fai- rest ob- ject of my love, Why, _|why _ dost thou from my|long- ing eyes re- move? _ _ _ _|
 z2 cc z2 d/AA/ | A/A/A z/ A/A/A/ c>c e>e | A2 z A d>d f2- | f/e/d/c/ B/c/d d3 c | d2 z A FF z B | %35
w: Was it, was it a|wak- ing dream that did fore- tell Thy wond- rous|birth, thy wond- rous, wond-|* * * * * * rous, wond- rous|birth? no vi- sion, no,|
 ^G2 z e A>E A>B | B3 A B !fermata!c3 | z2 e2 cc z e | cA A>A ^GG G>B | E2 z E A>A c2 | %40
w: no, no, no, no vi- sion|from a- bove? _|Where's Ga- briel, where's|Ga- briel now that vi- si- ted my|cell? I call, I call,|
 z A c>c e2 z c | f4 z2 ff | z2 ff z2 ff | z2 ff z2 z B | ^A3 !fermata!A z2 z f | cc c>c ^AA A>c | %46
w: I call, I call, I|call Ga- briel,|Ga- briel, Ga- briel,|Ga- briel, he|comes not; Where's|Ga- briel now that vi- si- ted my|
 F2 z F ^A>A c>c | f4 z2 ff | z2 ff z2 ff | z2 ff z2 z B | ^A3 !fermata!A z2 cF | %51
w: cell? I call, I call, I|call Ga- briel,|Ga- briel, Ga- briel,|Ga- briel, he|comes not; flatt'- ring,|
 z2 d^G c/d/ e2 e | e^d z =d dc z =c | B^AfB B/c/d z c/B/ | B8 |:[K:B][M:3/4] d2 B2 d/e/f | %56
w: flatt'- ring hopes, _ _ fare-|wel, _ fare- well, _ fare-|well, _ flatt'- ring hopes, _ _ fare- *|well.|Me Ju- dah's _ _|
 e3 d c2 | d>c B>d cd/c/ | B>AG>A B2 | A6 :| c2 A2 F2 | B2 B2 z c | d4 z B | G4 z d | e>fe>dc>B | %65
w: daugh- ters _|once _ _ _ _ _ _|_ _ _ _ ca-|ress'd,|Call'd me of|mo- thers the|most, the|most, the|most _ _ _ _ _|
 A>c^B>cd>c | c6 | f2 d2 B2 | e2 e2 z G | c4 z B | A4 z c | f4 z f | d>ed>cB>A | G>BA>BcB | B6 || %75
w: _ _ _ _ _ _|bless'd;|call'd me of|mo- thers the|most, the|most, the|most, the|most _ _ _ _ _|_ _ _ _ _ _|bless'd;|
[K:D][M:4/4] z2 B2 G>G G2 | z2 e2 =c>c c>e | e<^A z f f<B c2 | z2 d>e ^A3 c | d<F G2- GF B<^D | %80
w: Now fa- tal change,|now fa- tal change of|mo- thers, of mo- thers most,|most dis- tress'd, of|mo- thers most, _ _ most _|
 E2 ^EE !fermata!F4 |:[Q:1/4=120]"^Allegro" z8 | B2 z2 F2 z2 | d2 cB ^A2 F2 | B>c B>c d>e de | %85
w: _ _ dis- tress'd.||How, how,|how shall my soul its|mo- * * * * * * *|
 f2 e>d c>d ec | d4 f2 z2 | B2 z2 g2 fe | ^d3 d e>f e>=d | c>d e>A d>e d>c | B>c d>B c>d cB |1 %91
w: * * * * * tions _|guide, how,|how, how shall my|soul its mo- * * *||* * * * * * tions _|
 ^A8 :|1 ^A4 B2 z2 |: ^G2 z2 e2 z2 | c2 de A2 z2 | d2 ef B2 cd | ed/c/ Bc/d/ cB/c/ AB/c/ | %97
w: guide,|guide, How,|how, how,|how shall I stem,|how shall I stem the va-||
 d>e f2 d3 c | d3 c B2 dc | ^A3 ^G F/G/F/G/ =AB/A/ | ^G/A/G/A/ Bc/B/ ^A/B/A/B/ cd/c/ | %101
w: * * rious, va- rious|tide, Whilst faith and _|doubt my la- * * * * * *||
 B/c/B/c/ de/d/ c/d/c/d/ ef/e/ | d2 cB ^AB cB |1 B6 z2 :|1 B8 || %105
w: |* b'ring _ thoughts _ di- *|vide?|vide?|
[Q:1/4=70]"^tempo 70" z ^d d>d d2 fB | z2 gA A3 ^G | ^G2 z F F2 =G>G | GF z c c/d/e z e | %109
w: For whilst of thy dear, _|dear _ sight be-|guil'd, I trust _ the|God, _ but oh! _ _ I|
 e^d z f f2 g>f | e>d c2- c>ed>c | B>A GA/B/ ^A3 B/c/ | F^G/^A/ B2 z2 c>d | %113
w: fear, _ but oh! _ _|_ _ _ _ _ _ _||* * * * oh! I|
"^rit." B3 ^A !fermata!B4 |] %114
w: fear the child.|
V:2
 [B,D]4 [DF]4 | [EG]4 [DFB]4 | [B,FG]4 [B,EG]4 | [CEF]8 | [B,DF]4 [B,^DF]4 | %5
 [B,EB]4 [B,DB]2 [^A,-DF-][A,CF] | [B,CE]8 | !fermata![^A,CF]2 z2 [CFA]4- | %8
 [CFA]2 [C^Gc]2 [CFc]2 [CFc]2 | [DFB]8 | [C^E^G]2 [CFA]2 [DFA]2 [C-E-A][CEG] | [CFA]4 x4 | %12
 [A,FA]8- | [A,FA]6 [G,B,E]2 | [F,A,D]4 [G,B,E]2 [A,EA]2 | [DFA]2 [FAd]2 [D^GB]4 | [EAc]6 [EAc]2- | %17
 [EAc]2 [DFB]2 [B,E^G]4 | [CEA]4 [=CDA]4 | [B,DG]4 [=CDA]2 [B,DB]2 | [B,D^G]4 [^A,CF]4 | %21
 [F^Ac]4 [FB^d]4 | [FB^d]2 [FBf]2 [E^GB]2 [CGc]2 | [CFc]8 | [FBd]6 [B,F-B-]2 | %25
 [DFB]2 [DF-^A-][CFA] !fermata![DFB]4 | [CF^A]4 [FAc]4- | [FAc]6 [DF^A]2 | [CF^A]8 | %29
 [DFB]4 !fermata![CF^A]4 | [A,CF]4 [A,DF]4- | [A,DF]4 [A,CE]4 | [A,DF]4 [DFA]4 | %33
 [DGB]4 [DFA-]2 [CEA]2 | [DFA]6 [DFB]2 | [B,E^G]4 [A,EA]4 | [E^GB]4 !fermata![EAc]4 | [A,CE]8 | %38
 [CEA]2 [A,CE]2 [^G,B,E]4 | [A,CE]8 | [CEA]6 [EAc]2 | [FAd]4 [CFc]4 | [FBd]4 [CFc]4 | %43
 [DFB]4 [B,FB]4 | !fermata![CF^A]4 [FAc]4- | [FAc]4 [CF^A]4 | [^A,CF]4 [CF^A]4 | [^Acf]4 [Fcf]4 | %48
 [Bdf]4 [Fcf]4 | [Bdf]4 [FBf]4 | !fermata![Fcf]4 [CF^A]4 | z2 [^GBd]2 [E^Ac]4 | %52
 [E^Ac][^D=A^B] z [=D^G=B] [DGB][C^A] z [=C=G=c] | [CFB][B,F^A] [B,FB]2 [DFB]2 [C-F-B][CFA] | %54
 [DFB]8 |:[K:B][M:3/4] [DFB]6 | [Ec]6 | [DFB]4 [CGc]2 | [DGB]2 [C^EG]4 | [CFA]6 :| [CFA]6 | %61
 [B,FB]4 z2 | [B,DF]4 z2 | [B,EG]4 z2 | [CEG]4 z2 | [A,CF]2 [^B,D]4 | [CE]6 | [CFc]2 [DFB]4 | %68
 [EGB]4 z2 | [EGc]4 z2 | [CFA]4 z2 | [B,FB]4 z2 | [FBd]4 z2 | [EGB]2 [CFA]4 | [DFB]6 || %75
[K:D][M:4/4] [G,B,E]8 | [=CG]8 | [^A,D]4 [B,-F]2 [B,-E]2 | [B,D]4 [^A,F]4 | %79
 [B,DF]2 [B,DG]2 [B,^DB]4 | [B,B]4 !fermata![CF^A]4 |: [B,DF]2 z2 [^A,CF]2 z2 | %82
 [F,B,F]2 z2 [F,CF]2 z2 | [DF]4 [CF]2 z2 | [FBd]2 z2 [DGB]4 | [DFB]4 [CF^A]4 | %86
 [DFB]2 z2 [F^Ac]2 z2 | [FBd]4 [Gce]4 | [FB^d]4 [GBe]4 | [EAc]2 [EAc]2 [DAd]4 | %90
 [DGB]2 [DGB]2 [CGc]2 [CEG]2 |1 [^A,CF]8 :|1 [^A,CF]2 z2 [F,B,F]2 z2 |: [B,E^G]2 z2 [A,EA]2 z2 | %94
 [EAc]2 BA [DF]2 z2 | [Bdf]2 ed [GB]4 | [EBe]4 [EAc]2 [FAc]2 | d2 B2 [DF]2 [CE]2 | [DFA]4 [DGB]4 | %99
 [CF^A]4 [B,FB]4 | [B,E^G]4 [CF^A]2 [FAc]2 | [DGB]4 [EAc]2 [Ace]2 | [FBd]2 [EGc]2 [CF^A]4 |1 %103
 [DFB]4 [B,FB]2 z2 :|1 [DFB]8 || [FB^d]8 | z2 [GB][FA]- [FA]4 | [E^G]4 [B,^DF]2 [B,E=G]2 | [CEc]8 | %109
 B8 | c8 | [GB]4 F3 B, | ^A,B,/C/ D4 [B,G]2 | F8 |] %114
V:3
 [B,,,B,,]8 | [B,,,B,,]8 | [B,,,B,,]8 | [^A,,,^A,,]8 | [B,,,B,,]4 [A,,,A,,]4 | [^G,,,^G,,]8 | %6
 [G,,,G,,]8 | [F,,,F,,]8 | [F,,F,]2 [E,,E,]2 [D,,D,]2 [^A,,,^A,,]2 | [B,,,B,,]8 | %10
 [C,,C,]2 [A,,,A,,]2 [B,,,B,,]2 [C,,C,]2 | F,,3 E,, D,,4- | D,,8- | D,,8- | D,,6 C,,2 | D,,2 D,6 | %16
 C,2 B,,2 A,,2 F,,2 | C,,2 D,,2 E,,4 | A,,4 F,,4 | G,,4 ^E,,4- | E,,4 F,,4 | F,,4 B,,4 | %22
 B,,2 ^D,2 E,4 | ^A,,8 | B,,6 D,,2 | F,,4 !fermata!B,,4 | F,,8- | F,,8 | F,,8 | !fermata!F,,8 | %30
 F,4 D,4- | D,8 | D,8 | [G,,G,]4 [A,,A,]2 [A,,,A,,]2 | [D,,D,]8 | [D,,D,]4 [C,,C,]4 | %36
 E,2 E,,2 !fermata!A,,4 | [A,,,A,,]8 | [A,,,A,,]8 | [A,,,A,,]8 | [A,,,A,,]6 [A,,,A,,]2 | %41
 [D,,D,]4 [^A,,,^A,,]4 | [B,,,B,,]4 [A,,,A,,]4 | [^G,,,^G,,]4 [=G,,,=G,,]4 | [F,,,F,,]8- | %45
 [F,,,F,,]8 | [F,,,F,,]4 [F,,F,]3 [E,,E,] | [E,,E,]4 [^A,,,^A,,]4 | [B,,,B,,]4 [A,,,A,,]4 | %49
 [^G,,,^G,,]4 [=G,,,=G,,]4 | [F,,,F,,]8 | [F,,,F,,]6 [F,,,F,,]2 | [F,,,F,,]4 [F,,F,]2 [E,,E,]2- | %53
 [E,,E,]2 [D,,D,]2 [F,,F,]2 [F,,,F,,]2 | [B,,,B,,]8 |:[K:B][M:3/4] B,2 B,,2 B,2 | B,2 A,4 | %57
 B,4 A,2 | G,2 C2 C,2 | F,6 :| F,4 E,2 | D,>E,D,>C,B,,>A,, | B,,>C,B,,>C,D,>B,, | %63
 E,>F,E,>D,C,>^B,, | C,>D,C,>D,E,>C, | F,>D, G,2 G,,2 | C,2 C2 B,2 | A,2 B,2 =A,2 | %68
 G,>F,G,>=A,G,>F, | E,>D,E,>C,D,>E, | F,>E,F,>G,F,>E, | D,>C,D,>E,D,>C, | B,,>A,,B,,>C,D,>B,, | %73
 E,>C, F,2 F,,2 | B,,6 ||[K:D][M:4/4] [E,,E,]8 | [E,,E,]8 | F,,4 G,,4- | G,,4 F,,4 | B,,4 A,,4 | %80
 G,,4 !fermata!F,,4 |: B,,2 z2 F,,2 z2 | D,2 C,B,, ^A,,2 F,,2 | B,,>C,D,>E, F,2 z2 | %84
 B,,2 z2 G,2 F,E, | D,>E,D,>E, F,2 F,,2 | B,,2 z2 F,,2 z2 | D,2 C,B,, ^A,,3 A,, | %88
 B,,>C,B,,>A,, G,,2 E,,2 | A,,2 A,>G,F,>G,A,>F, | G,>A,G,>F, E,2 C,2 |1 F,>G,F,>E,D,>E,D,>C, :|1 %92
 F,2 z2 ^D,2 z2 |: E,2 z2 C,2 D,E, | A,,2 B,,C, D,2 E,F, | B,,2 F,,2 G,,4 | ^G,,4 A,,2 F,,2 | %97
 B,,2 G,,2 A,,4 | D,4 G,2 E,2 | F,3 E, ^D,2 B,,2 | E,2 C,2 F,2 D,2 | G,2 E,2 A,2 F,2 | %102
 B,2 E,2 F,2 F,,2 |1 B,,4 ^D,2 z2 :|1 B,,8 || [B,,,B,,]8 | [^D,,^D,]4 [D,,D,]4 | [E,,E,]8 | %108
 [^A,,,^A,,]8 | [B,,,B,,]4 [E,,E,]4 | [A,,A,]2 [^A,,^A,]2 [B,,B,]3 [=A,,=A,] | %111
 [G,,G,]>[F,,F,] [E,,E,]2- [E,,E,][D,,D,]/[C,,C,]/ [D,,D,]2- | %112
 [D,,D,]>[C,,C,][B,,,B,,]>[A,,,A,,][G,,,G,,]>[F,,,F,,] [E,,,E,,]2 | %113
 [F,,,F,,]4 !fermata![B,,,B,,]4 |] %114
V:4
 x8 | x8 | x8 | x8 | x8 | x8 | x8 | x8 | x8 | x8 | x8 | x8 | x8 | x8 | x8 | x8 | x8 | x8 | x8 | %19
 x8 | x8 | x8 | x8 | x8 | x8 | x8 | x8 | x8 | x8 | x8 | x8 | x8 | x8 | x8 | x8 | x8 | x8 | x8 | %38
 x8 | x8 | x8 | x8 | x8 | x8 | x8 | x8 | x8 | x8 | x8 | x8 | x8 | x8 | x8 | x8 | x8 |: %55
[K:B][M:3/4] x6 | G2 F4 | x6 | x6 | x6 :| x6 | x6 | x6 | x6 | x6 | x6 | x6 | x6 | x6 | x6 | x6 | %71
 x6 | x6 | x6 | x6 ||[K:D][M:4/4] x8 | x8 | x8 | x8 | x8 | E2 D2 C4 |: x8 | x8 | F,2 B,2 ^A,2 z2 | %84
 x8 | x8 | x8 | x8 | x8 | x8 | x8 |1 x8 :|1 x8 |: x8 | x8 | x8 | x8 | [DG]4 A4 | x8 | x8 | x8 | %101
 x8 | x8 |1 x8 :|1 x8 || x8 | x8 | x8 | x8 | F6 E2- | E2 G4 F2 | x8 | x8 | D2 C2 !fermata!D4 |] %114

